X:1
T:Je ne seray iamais
T:Pierre Passereau
T:Source : Tiers livre contenant 21 chansons eslevées à 4 parties---Paris---P.Attaignant---1536. Editor : André Vierendeels (03/01/18). Notes : Original clefs : G2, C3, C4, F4 Original note valies have been halved Editorial accidentals above the staff
T:Je ne seray iamais
T:©
T:©
T:©
T:©
C:Pierre Passereau
Z:©
%%score [ 1 2 3 4 ]
L:1/8
Q:1/4=126
M:2/2
K:C
V:1 treble nm="Soprano" snm="S"
V:2 treble-8 nm="Alto" snm="A"
V:3 treble-8 nm="Tenor" snm="T"
V:4 bass nm="Bass" snm="B"
V:1
 AB c2 B2 A2 | G2 A2 F2 D2 | z2 AB c2 B2 | G2 A2 A2 G2 | z4 z2 AB | c2 BA d2 d2 | B2 G2 z2 AB | %7
w: Je ne se- ray ia-|mais ber- gè- re,|si le ber- ger|n'est a- vec moy,|ie ne|se- ray ia- mais ber-|gè- re, si le|
 c2 B2 A2 G2- | G2 F2 G4 | z2 G2 G2 c2- | c2 c2 A2 c2 | B4 A2 c2- | c2 c2 B2 A2 | A2 G2 A4 | z8 | %15
w: ber- ger n'est a-|* vec moy;|il es- toit|_ u- ne fil-|let- te, bel|_ le fil- le|sans es- moy,||
 z2 d4 B2 | G2 c3 B A2- | AG G4 F2 | G4 z4 | AB c2 B2 A2 | G2 A2 F2 D2 | AB c3 B A2 | GFGA B2 A2- | %23
w: vist son|a- my _ _|_ _ de- vant|soy,|ie ne se- ray ia-|mais ber- gè- re|si le ber- ger n'est|a- * * * * *|
 AG G4 F2 | G8- | G4 z4 | z4 z2 A2 | c2 B2 G2 B2- | BA A4 G2 | A4 A2 c2 | B2 A4 G2 | A2 F2 D2 FG | %32
w: * * * vec|moy,|_|dict:|mon a- my, bai-|* * * sez|moy, puis la|bai- s'et puis|l'a- col- le et luy|
 A2 B2 A2 G2 |"^#" F2 z2 A3 A | G2 G2 A2 F2 | G8 | z4 AB c2 | B2 A2 G2 A2 | F2 D2 AB c2- | %39
w: feist ie ne scay|quoy, et luy|feict ie ne scay|quoy,|ie ne se-|ray ia- mais ber-|gè- re si le ber-|
 cB A2 GFGA | B2 A3 G G2- | G2 F2 G4- | G4 z4 | AB c2 B2 A2 | G2 A2 F2 D2 | AB c3 B A2 | %46
w: * ger n'est a- * * *||* vec moy,|_|ie ne se- ray ia-|mais ber- gè- re|si le ber- ger n'est|
 GFGA B2 A2- |"^#" AG G4 F2 | G8 |] %49
w: a- * * * * *|* * * vec|moy.|
V:2
 z4 DE F2 | E2 DC D2 B,2 | G,2 z2 G2 GG | D2 F2 D2 E2 | D4 z2 D2 | E2 F2 G4 | z2 D3 E F2 | %7
w: Je ne se-|ray ia- mais ber- gè-|re, si le ber-|ger n'est a- vec|moy, si|le ber- ger,|si le ber-|
 G2 F4 E2 | D4 D4 | z4 C4 | C2 F4 C2 | D2 E2 F2 E2 | G3 G F2 F2 | E2 E2 CC F2 | E2 D2 D2 C2 | %15
w: ger n'est a-|vec moy;|il|es- toit u-|ne fil- let- te,|bel- le fil- le|sans es- moy, en gar-|dant les bre- bi-|
 D2 A,2 z2 D2 | E2 E2 C2 F2 | E2 DC D4 | B,4 EF G2 | F2 E2 D4 | E2 C2 A,2 DE | F2 EC E2 D2 | %22
w: et- tes, vist|son a- my de-|* * * vant|soy, ie ne se-|ray ia- mais|ber- gè- re si le|ber- ger n'est a- vec|
 D2 z2 DD F2 | F2 D2 E2 D2 | B,4 D4 | E2 E4 C2 | F2 E2 D2 C2 | G3 G D2 F2 | E2 D2 E4 | %29
w: moy, si le ber-|ger n'est a- ven|moy, luy|pre- sen- ta|la bou- chet- te,|dict: mon a- my,|bai- sez moy,|
 z2 C2 F2 E2 | DD F2 E2 D2 | z D D2 B,2 z D | FD F2 F2 E2 | D2 z2 E3 E | E2 D3 D D2 | B,8 | %36
w: puis la bai-|s'et si l'a- col- le|et luy feist, et|luy feist ie ne scay|quoy, et luy|feist ie ne scay|quoy,|
 EF G2 F2 E2 | D4 E2 C2 | A,2 DE F2 EC | E2 D2 D2 z2 | DE F2 F2 D2 | E2 D2 B,4- | B,4 EF G2 | %43
w: ie ne se- ray ia-|mais ber- gè-|re si le ber- ger n'est|a- vec moy,|si le ber- ger n'est|a- vec moy,|_ ie ne se-|
 F2 E2 D4 | E2 C2 A,2 DE | F2 EC E2 D2 | D2 z2 DE F2 | F2 D2 E2 D2 | B,8 |] %49
w: ray ia- mais|ber- gè- re si le|ber- ger n'est a- vec|moy, si le ber-|ger n'est a- vec|moy.|
V:3
 z8 | z4 z2 d2- | de f2 e2 dc | B2 A2 AB c2 | B2 A2 G2 A2- | A2 F2 D2 d2- | dd d2 B2 z d | %7
w: |Si|_ le ber- ger n'est a-|vec moy, je ne se-|ray ia- mais ber-|* gè- re si|_ le ber- ger, si|
 e2 d2 c2 B2 | A2 A2 G4- | G4 z4 | z8 | z4 z2 e2- | e2 e2 d3 c | B2 B2 A2 A2 | c2 B2 A2 G2 | %15
w: le ber- ger n'est|a- vec moy;|_||bel-|* le fil- le|sans es- moy, en|gar- dant les bre-|
 A2 F2 D4 | z4 A2 c2 | B2 AG A2 A2 | G8 | z8 | z2 AB c2 B2 | A2 G2 A2 F2 | D2 d3 d d2 | %23
w: bi- et- tes,|vist son|a- my _ de- vant|soy,||ie ne se- ray|ia- mais ber- gè-|re si le ber-|
 c2 B2 c2 A2 | G4 z2 G2 | G2 c4 c2 | A2 c2 B2 A2 | z2 d4 d2 | c2 BA B2 B2 | A8 | z2 A2 c2 B2 | %31
w: ger n'est a- vec|moy; luy|pre- sen- ta|la bou- chet- te,|dict: mon|a- my, _ bai- sez|moy,|puis la bai-|
 A4 G2 A2 | FDdd c AcB | A2 z2 c3 c | c2 B2 A2 A2 | G8- | G4 z4 | z4 z2 AB | c2 B2 A2 G2 | %39
w: s'et l'a- col-|le, et luy feist ie ne _ scay|quoy, et luy|feist ie ne scay|quoy,|_|ie ne|se- ray ia- mais|
 A2 F2 D2 d2- | dd d2 c2 B2 | c2 A2 G4- | G4 z4 | z8 | z2 AB c2 B2 | A2 G2 A2 F2 | D2 d3 d d2 | %47
w: ber- gè- re si|_ le ber- ger n'est|a- vec moy|_||ie ne se- ray|ia- mais ber- gè-|re si le ber-|
 c2 B2 c2 A2 | G8 |] %49
w: ger n'est a- vec|moy|
V:4
 z8 | z4 z2 G,2- | G,G, F,2 C,2 G,2- | G,2 D,2 F,2 C,2 | D,E, F,2 E,2 D,2 | C,2 D,2 B,,2 G,,2 | %6
w: |Si|_ le ber- ger n'est|_ a- vec moy,|ie ne se- ray ia-|mais ber- gè- re|
 z2 G,3 G, F,2 | C,2 D,2 F,2 G,2 | D,4 G,,4- | G,,4 z4 | z8 | z4 z2 C,2- | C,2 C,2 D,2 D,2 | %13
w: si le ber-|ger n'est _ a-|vec moy|_||||
 E,2 E,2 A,,4 | z2 D,2 F,2 E,2 | D,C, D,2 B,,2 G,,2 | C,2 C,2 A,,2 A,,2 | E,2 E,2 D,4 | %18
w: |en gar- dant|les be- bi- et- tes,|vist son a- my|de- vant soy,|
 E,F, G,2 C,2 E,2 | D,2 C,2 G,2 D,2 | z2 F,3 F, G,2 | D,2 E,2 C,2 D,2 | G,,4 G,G, D,2 | %23
w: ie ne se- ray ia-|mais ber- gè- re,|si le ber-|ger n'est a- vec|moo, si le ber-|
 F,2 G,2 C,2 D,2 |"^#" G,,8 | C,4 C,2 F,2- | F,2 C,2 G,D, F,2 | C,2 G,4 D,2 | E,2 F,2 E,2 E,2 | %29
w: ger n'est a- vec|moy;|luy pre- sen-|* ta la bou- chet-|te dict: mon|a- my, bai- sez|
 A,,8 | z8 | D,2 D,2 G,,2 D,2- | D,2 B,,2 C,4 | D,2 z2 A,,3 A,, | B,,2 G,,2 D,2 D,2 | %35
w: moy,||puis la bai- s'et|_ l'a- col-|le, et luy|feist ie ne scay|
 G,,2 z2 E,F, G,2 | C,2 E,2 D,2 C,2 | G,2 D,2 z2 F,2- | F,F, G,2 D,2 E,2 | C,2 D,2 G,,4 | %40
w: quoy, ie- ne se-|ray ia- mais ber-|gè- re si|_ le ber- ger n'est|a- vec moy,|
 G,G, D,2 F,2 G,2 | C,2 D,2 G,,2 z2 | E,F, G,2 C,2 D,2 | E,2 C,2 G,2 D,2 | z2 F,3 F, G,2 | %45
w: si le ber- ger n'est|a- vec moy,|ie ne se- ray ia-|mais ber- gè- re|si le ber-|
 D,2 E,2 C,2 D,2 | G,,4 G,G, D,2 | F,2 G,2 C,2 D,2 | G,,8 |] %49
w: ger nest a- vec|moy si le ber-|ger n'est a- vec|moy.|

